X:21
T:WHIM OF A MOMENT -- JIG., THE
R:jig
C:R. NAGLE.
B:Coles pg. 64.1
Z:John B. Walsh, <walsh:mat:h.ubc.ca> 5/19/02
M:6/8
L:1/8
K:Am
(ve/d)|(cE)E (cE)E|cde dcB|(cE)E (cE)E|ABA GEG|
(cE)E (cE)E|cde dcB|ABc dcB|cAA A2:|
uB|cef gfa|agf e>dc|cef gfe|d>GG B>GG|
cef gfa|agf gfe|edc def|ecc c2:|
